public/assests/icons/social-fb.svg

<svg width="15" height="15" viewBox="0 0 15 15" fill="none" xmlns="http://www.w3.org/2000/svg">
<path d="M14.4444 7.72076C14.4444 3.73203 11.2109 0.498535 7.22222 0.498535C3.2335 0.498535 0 3.73203 0 7.72076C0 11.3255 2.64105 14.3134 6.09375 14.8552V9.80843H4.25998V7.72076H6.09375V6.12961C6.09375 4.31954 7.17201 3.31972 8.82169 3.31972C9.61162 3.31972 10.4384 3.46077 10.4384 3.46077V5.23812H9.52769C8.63056 5.23812 8.35069 5.79488 8.35069 6.36659V7.72076H10.3537L10.0335 9.80843H8.35069V14.8552C11.8034 14.3134 14.4444 11.3255 14.4444 7.72076Z" fill="white"/>
</svg>

<svg width="15" height="15" fill="none" xmlns="http://www.w3.org/2000/svg"><path d="M14.4444 7.7208c0-3.9888-3.2335-7.2223-7.2222-7.2223S0 3.732 0 7.7208c0 3.6047 2.641 6.5926 6.0938 7.1344V9.8084H4.26V7.7208h1.8338V6.1296c0-1.81 1.0782-2.8099 2.7279-2.8099.79 0 1.6167.141 1.6167.141v1.7774h-.9107c-.8971 0-1.177.5568-1.177 1.1285v1.3542h2.003l-.3202 2.0876H8.3507v5.0468c3.4527-.5418 6.0937-3.5297 6.0937-7.1344Z" fill="#fff"/></svg>
